X: 7
T: Out On The Ocean
R: jig
M: 6/8
L: 1/8
K: Gmaj
|:GE|"G"D2B BAG|BdB A2B|"C"GED G2A|"D"B2B AGE|
"G"D2B BAG|BdB A2B|"C"GED G2A|"D"BGE "G"G:|
Bd|"Em"e2e edB|ege edB|"Bm7"d2B def|"C"gfe dBA|
"G"G2A B2d|"C"ege dBA|"G"GED G2A|"D"BGE "G"G:|


Tune 108	Setting 12686

